!!!COM: Bach, Johann Sebastian
!!!OTL: 258. Meine Augen schliess' ich jetzt
!!!ONM: No. 258
!!!OCL: Erk
!!!SCA: BWV 378
!!!YOE: Riemenschneider, Albert
!!!OPR: 371 Harmonized Chorales and 69 Chorale Melodies with Figured Bass
!!!OPT: Bach Chorale Harmonizations
**harm	**root	**kern	**kern	**kern	**kern
!	!	!bass	!tenor	!alto	!sprno
*Iorgan	*Iorgan	*Iorgan	*Iorgan	*Iorgan	*Iorgan
*k[b-e-a-]	*k[b-e-a-]	*k[b-e-a-]	*k[b-e-a-]	*k[b-e-a-]	*k[b-e-a-]
*E-:	*E-:	*E-:	*E-:	*E-:	*E-:
*met(c)	*met(c)	*met(c)	*met(c)	*met(c)	*met(c)
*M4/4	*M4/4	*M4/4	*M4/4	*M4/4	*M4/4
*MM60	*MM60	*MM60	*MM60	*MM60	*MM60
I	4GG	8EE-	8G	4B-	4e-
.	.	8FF	8F	.	.
=1	=1	=1	=1	=1	=1
Ib	4GG	8GG	4E-	4B-	4e-
.	.	8AA-	.	.	.
V	4DD	8BB-	4D	4F	4B-
.	.	8AA-	.	.	.
Ib	4GG	4GG	4E-	4B-	4e-
viiob	4FF#	4FF	4A-	8c	4f
.	.	.	.	8d	.
=2	=2	=2	=2	=2	=2
I;	2.GG;	2EE-;	2B-;	2e-;	2g;
.	.	4r	4r	4r	4r
Ib	4GG	4GG	4B-	[4e-	4b-
=3	=3	=3	=3	=3	=3
IV	4CC	4.AA-	4A-	8e-]	4cc
.	.	.	.	8d	.
Ib	4GG	.	4B-	[4e-	4b-
.	.	8GG	.	.	.
ii7	4AA	4FF	8c	8e-]	4.a-
.	.	.	16B-	16d	.
.	.	.	16A-	16c	.
V	4DD	4BBB-	4B-	4d	.
.	.	.	.	.	8b-
=4	=4	=4	=4	=4	=4
I;	2GG;	2EE-;	2B-;	2e-;	2g;
r	4r	4r	4r	4r	4r
I	4GG	4EE-	4G	[4e-	4b-
=5	=5	=5	=5	=5	=5
viiob	4FF#	4FF	4A-	8e-]	4a-
.	.	.	.	8d	.
Ib	4GG	8GG	4B-	[4e-	4g
.	.	8AA-	.	.	.
V	4DD	4BB-	[4B-	8e-]	4f
.	.	.	.	8d	.
viiob/V	4CC#	4C	8B-]	8e-	4e-
.	.	.	8A	8E-	.
=6	=6	=6	=6	=6	=6
V;	2DD;	2BB-;	2d;	2B-;	2f;
r	4r	4r	4r	4r	4r
Vb/vi	4BB	4BB	4G	4d	4g
=7	=7	=7	=7	=7	=7
vi	4EE	4.C	4G	8d	4e-
.	.	.	.	16c	.
.	.	.	.	16d	.
IVb	8CC	.	8c	8e-	4a-
V7b	8DD	8D	8B-	[8f	.
I	4GG	4E-	4B-	8f]	4g
.	.	.	.	8e-	.
V	4DD	4BB-	8.B-	8e-	4f
.	.	.	.	8d	.
.	.	.	16A-	.	.
=8	=8	=8	=8	=8	=8
I;	2GG;	2EE-;	2G;	2B-;	2e-;
r	4r	4r	4r	4r	4r
I	4GG	8EE-	4B-	4e-	8g
.	.	8FF	.	.	8a-
=9	=9	=9	=9	=9	=9
!!linebreak: 2
Ib	4GG	4.GG	8B-	4e-	4b-
.	.	.	8A-	.	.
Ib	8GG	.	4G	4e-	4b-
vi7	8EE	8C	.	.	.
ii7	4AA	4FF	4A-	8e-	4a-
.	.	.	.	8d	.
Ib	4GG	8GG	4B-	4e-	4g
.	.	8AA-	.	.	.
=10	=10	=10	=10	=10	=10
V;	2DD;	2BB-;	2B-;	4e-	2f;
.	.	.	.	4d;	.
r	4r	4r	4r	4r	4r
Vb/vi	4BB	4BB	4G	4d	4g
=11	=11	=11	=11	=11	=11
vi	4EE	8C	8G	4c	4e-
.	.	8BB-	8A-	.	.
Ib	4GG	8AA-	4B-	4B-	4e-
.	.	8GG	.	.	.
iib	4AA	8AA-	4A-	4c	4f
.	.	8GG	.	.	.
Vb/ii	4EE	8FF	[4G	4c	4g
.	.	8EE	.	.	.
=12	=12	=12	=12	=12	=12
ii	4AA	8FF	8G]	2c	2a-
.	.	8GG	16F	.	.
.	.	.	16E	.	.
iib	4AA	8AA-	4F	.	.
.	.	8BB-	.	.	.
VI;	4EE;	4C;	8F	4c;	4g;
.	.	.	8E;	.	.
Vb/IV	4GG	4GG	4E-	8B-	4b-
.	.	.	.	8d-	.
=13	=13	=13	=13	=13	=13
IV	4CC	4AA-	4E-	8c	4a-
.	.	.	.	4e-	.
V	4DD	4BB-	4B-	.	4f
.	.	.	.	8dy	.
I	4GG	8E-	4B-	4e-	4g
.	.	8D	.	.	.
IVb	4CC	4C	4c	4e-	4a-
=14	=14	=14	=14	=14	=14
Ib;	2GG;	2GG;	2B-;	2e-;	2b-;
r	4r	4r	4r	4r	4r
vi	4EE	8C	4G	[4c	4e-
.	.	8BB-	.	.	.
=15	=15	=15	=15	=15	=15
iib	8AA	4AA-	8A-	8c]	4f
V7d	8DD	.	8B-	8d	.
Ib	8GG	8GG	8B-	[4e-	4g
vi	8EE	8C	16c	.	.
.	.	.	16B-	.	.
viiob	4FF#	4FF	4A-	8e-]	4a-
.	.	.	.	8d	.
Ib	4GG	8GG	4B-	4e-	4g
.	.	8EE-	.	.	.
=16	=16	=16	=16	=16	=16
ii7b	4AA	4AA-	4c	8e-	2f
.	.	.	.	16d	.
.	.	.	.	16c	.
V	4DD	4BB-	8.B-	4d	.
.	.	.	16A-	.	.
I;	4GG;	4EE-;	4G;	4B-;	4e-;
==	==	==	==	==	==
*-	*-	*-	*-	*-	*-
!!!CDT: 1685/3//-1750/7/28
!!!OCY: Deutschland
!!!AGN: chorale
!!!AST: Baroque
!!!AIN: vox
!!!YOY: 1941
!!!PPP: New York; London
!!!PPR: G. Schirmer
!!!ENC: David Huron
!!!EED: David Huron
!!!YEN: United States of America
!!!YER: 1992
!!!YEC: Copyright 1992 David Huron
!!!YEM: Rights to all derivative electronic formats reserved.
!!!YER: March 20, 1996
!!!AMT: simple quadruple
!!!EEV: 1.1
!!chor2scor: -l 2 -s 0.6 -o %b.pmx
